src/assets/icons/letters,simple,serif-j.svg

<svg width="48" height="48" viewBox="0 0 48 48" fill="none" xmlns="http://www.w3.org/2000/svg">
<rect opacity="0.2" x="5" y="5" width="38" height="38" rx="4" fill="black"/>
<path d="M21.7916 17.52C21.7916 16.82 21.7516 16.26 21.6716 15.84C21.6116 15.4 21.4816 15.06 21.2816 14.82C21.0816 14.56 20.7916 14.39 20.4116 14.31C20.0516 14.21 19.5616 14.14 18.9416 14.1V12.9H29.0516V14.1C28.4316 14.12 27.9316 14.18 27.5516 14.28C27.1716 14.38 26.8816 14.56 26.6816 14.82C26.4816 15.08 26.3516 15.44 26.2916 15.9C26.2316 16.36 26.2016 16.97 26.2016 17.73V36.06C26.2016 38.58 25.5616 40.5 24.2816 41.82C23.0016 43.14 21.0916 43.8 18.5516 43.8C16.7316 43.8 15.3316 43.49 14.3516 42.87C13.3516 42.25 12.8516 41.46 12.8516 40.5C12.8516 39.92 13.0416 39.47 13.4216 39.15C13.7816 38.85 14.2316 38.7 14.7716 38.7C15.2316 38.7 15.6016 38.82 15.8816 39.06C16.1416 39.3 16.4716 39.75 16.8716 40.41C17.2716 41.07 17.6316 41.51 17.9516 41.73C18.2716 41.95 18.6616 42.06 19.1216 42.06C19.9816 42.06 20.6416 41.59 21.1016 40.65C21.5616 39.71 21.7916 38.39 21.7916 36.69V17.52Z" fill="black"/>
</svg>

<svg xmlns="http://www.w3.org/2000/svg" width="48" height="48" fill="none" viewBox="0 0 48 48">
  <rect width="38" height="38" x="5" y="5" fill="#000" opacity=".2" rx="4"/>
  <path fill="#000" d="M21.792 17.52c0-.7-.04-1.26-.12-1.68-.06-.44-.19-.78-.39-1.02-.2-.26-.49-.43-.87-.51-.36-.1-.85-.17-1.47-.21v-1.2h10.11v1.2c-.62.02-1.12.08-1.5.18-.38.1-.67.28-.87.54-.2.26-.33.62-.39 1.08-.06.46-.09 1.07-.09 1.83v18.33c0 2.52-.64 4.44-1.92 5.76-1.28 1.32-3.19 1.98-5.73 1.98-1.82 0-3.22-.31-4.2-.93-1-.62-1.5-1.41-1.5-2.37 0-.58.19-1.03.57-1.35.36-.3.81-.45 1.35-.45.46 0 .83.12 1.11.36.26.24.59.69.99 1.35.4.66.76 1.1 1.08 1.32.32.22.71.33 1.17.33.86 0 1.52-.47 1.98-1.41.46-.94.69-2.26.69-3.96V17.52z"/>
</svg>
